svgs/infinitode_2.svg

<svg width="192" height="192" viewBox="0 0 192 192" fill="none" xmlns="http://www.w3.org/2000/svg">
<path d="M22 117.473L38.5873 85.4255L41.6032 117.473L55.1746 134.467L88.455 136.158L116.101 109.848V128.389L97 159.95L38.5873 167L22 117.473Z" stroke="black" stroke-width="12" stroke-linecap="round" stroke-linejoin="round"/>
<path d="M68.5 115.715L85.5 116.645L74 92.7651L79.5 53.2088L104.5 47.9495L120 59.9024L139 63.2492L126 31.2155L71 25L54 73.844L58.5 106.63L68.5 115.715Z" stroke="black" stroke-width="12" stroke-linecap="round" stroke-linejoin="round"/>
<path d="M127 94.4894L93 86.5935L94.5 78.5005L103 73.1899L146.5 81.3972L170 123.025L136.5 165.993L117 160.454L136.5 140.405L140 115.638L127 94.4894Z" stroke="black" stroke-width="12" stroke-linecap="round" stroke-linejoin="round"/>
</svg>

<svg width="192" height="192" viewBox="0 0 192 192" fill="none" xmlns="http://www.w3.org/2000/svg"><path d="m22 117.473 16.587-32.047 3.016 32.047 13.572 16.994 33.28 1.691 27.646-26.31v18.541L97 159.95 38.587 167 22 117.473Z" stroke="#000" stroke-width="12" stroke-linecap="round" stroke-linejoin="round"/><path d="m68.5 115.715 17 .93L74 92.765l5.5-39.556 25-5.26L120 59.903l19 3.347-13-32.034L71 25 54 73.844l4.5 32.786 10 9.085Z" stroke="#000" stroke-width="12" stroke-linecap="round" stroke-linejoin="round"/><path d="m127 94.49-34-7.896 1.5-8.093 8.5-5.311 43.5 8.207 23.5 41.628-33.5 42.968-19.5-5.539 19.5-20.049 3.5-24.767-13-21.149Z" stroke="#000" stroke-width="12" stroke-linecap="round" stroke-linejoin="round"/></svg>
